assets/icons/folder_icons/folder-dict-open.svg

<?xml version="1.0" encoding="UTF-8"?><svg id="Done" xmlns="http://www.w3.org/2000/svg" xmlns:xlink="http://www.w3.org/1999/xlink" viewBox="0 0 14 14"><defs><style>.cls-1{opacity:.3;}.cls-1,.cls-2{isolation:isolate;}.cls-3{fill:#40a0ff;}.cls-4{fill:#f29b00;}.cls-5{fill:url(#linear-gradient);}.cls-6{fill:#efe39a;}.cls-7{fill:red;}.cls-2{fill:url(#radial-gradient);opacity:.711;}</style><radialGradient id="radial-gradient" cx=".403" cy="-60.9241" fx=".403" fy="-60.9241" r="1.5875" gradientTransform="translate(79.3701 -113.0606) rotate(33.6901) scale(4.1287 -2.2712)" gradientUnits="userSpaceOnUse"><stop offset="0" stop-color="#000"/><stop offset="1" stop-color="#000" stop-opacity="0"/></radialGradient><linearGradient id="linear-gradient" x1="-23.3139" y1="-162.209" x2="-22.7848" y2="-162.209" gradientTransform="translate(93.1156 -604.5762) scale(3.7795 -3.7795)" gradientUnits="userSpaceOnUse"><stop offset="0" stop-color="#000"/><stop offset="1" stop-color="#000" stop-opacity="0"/></linearGradient></defs><g id="Layer_23_copy"><path id="path599" class="cls-3" d="m0-.0056v12l4.1131,1.9355c.3105.1468.681.0135.8275-.2976.0393-.0834.0596-.1746.0594-.2668v-2.3711h6V.9944c-.004-.745-.4086-.9893-1-1H0Z"/><path id="path600" class="cls-1" d="m-.0179-.0056l4.0848,1.5879c.5625.2187.9331.7603.9331,1.3638v8.0482h6V.9944c-.004-.745-.4093-.9893-1.0016-1H-.0179Z"/><path id="path601" class="cls-2" d="m10,10.9944c.7057-.0798,1.0812-.3798,1-.9844v-5.0156c.6647-.0018.998-.3352,1-1V.9944c.0053-.6399-.3093-.9903-1-1H0v11h10Z"/><rect x="3" y="3" width="11" height="11" rx="1.4932" ry="1.4932"/><path class="cls-4" d="m4,8.0027v3.9986c0,.5515.4471.9986.9986.9986h7.0027c.5515,0,.9986-.4471.9986-.9986v-4.0027c0-.5515-.4471-.9986-.9986-.9986h-6.9986c-.5538,0-1.0027.4489-1.0027,1.0027Z"/><rect x="4" y="6" width="9" height="1"/><rect class="cls-6" x="4" y="4" width="9" height="2" rx="1" ry="1"/><path class="cls-7" d="m6,10l1,1v-4.9973c0-.5538-.4489-1.0027-1.0027-1.0027h0c-.5508,0-.9973.4465-.9973.9973v5.0027l1-1Z"/><path id="path613" class="cls-5" d="m5,4l1-.0056h1v9h-1l-1,.0056V4Z"/><path class="cls-3" d="m5,2.9456c.0005-.6031-.3694-1.1446-.9315-1.3632L0,0v11.994l4.1131,1.9355c.3105.1468.681.0135.8275-.2976.033-.0701.0446-.1472.0499-.2242l.0095-10.4621Z"/></g></svg>

<svg xmlns="http://www.w3.org/2000/svg" id="Done" viewBox="0 0 14 14"><defs><radialGradient id="radial-gradient" cx=".403" cy="-60.924" r="1.587" fx=".403" fy="-60.924" gradientTransform="matrix(3.43528 2.2902 1.25984 -1.88975 79.37 -113.06)" gradientUnits="userSpaceOnUse"><stop offset="0"/><stop offset="1" stop-opacity="0"/></radialGradient><linearGradient id="linear-gradient" x1="-23.314" x2="-22.785" y1="-162.209" y2="-162.209" gradientTransform="matrix(3.7795 0 0 -3.7795 93.116 -604.576)" gradientUnits="userSpaceOnUse"><stop offset="0"/><stop offset="1" stop-opacity="0"/></linearGradient><style>.cls-3{fill:#40a0ff}</style></defs><g id="Layer_23_copy"><path id="folder" d="M0-.006v12l4.113 1.936A.62.62 0 0 0 5 13.366v-2.372h6v-10c-.004-.745-.409-.989-1-1z" class="cls-3"/><path id="folder_shadow" d="m-.018-.006 4.085 1.588c.562.219.933.76.933 1.364v8.048h6v-10c-.004-.745-.41-.989-1.002-1z" opacity=".3" style="isolation:isolate"/><path id="flap_shadow" fill="url(#radial-gradient)" d="M10 10.994c.706-.08 1.081-.38 1-.984V4.994q.997-.002 1-1v-3c.005-.64-.31-.99-1-1H0v11z" opacity=".711" style="isolation:isolate"/><rect width="11" height="11" x="3" y="3" rx="1.493" ry="1.493"/><path fill="#f29b00" d="M4 8.003V12c0 .552.447.999.999.999H12A1 1 0 0 0 13 12V8a1 1 0 0 0-1-1H5.003C4.449 7 4 7.449 4 8.003"/><path d="M4 6h9v1H4z"/><rect width="9" height="2" x="4" y="4" fill="#efe39a" rx="1" ry="1"/><path fill="red" d="m6 10 1 1V6.003C7 5.449 6.551 5 5.997 5A.997.997 0 0 0 5 5.997V11z"/><path id="icon_shadow" fill="url(#linear-gradient)" d="m5 4 1-.006h1v9H6L5 13z"/><path id="flap" d="M5 2.946c0-.603-.37-1.145-.931-1.364L0 0v11.994l4.113 1.936c.31.146.681.013.828-.298a.6.6 0 0 0 .05-.224z" class="cls-3"/></g></svg>
